Setup/v9/Assets/Themes/Kobe - Light/WindowFit.svg

<svg width="20" height="20" viewBox="0 0 20 20" fill="none" xmlns="http://www.w3.org/2000/svg">
<g clip-path="url(#clip0_806_1033)">
<rect x="1" y="1" width="18" height="18" rx="2" stroke="black" stroke-linejoin="round"/>
<rect x="3.5" y="9.5" width="7" height="7" rx="1.5" stroke="black" stroke-linecap="round" stroke-linejoin="round"/>
<path fill-rule="evenodd" clip-rule="evenodd" d="M9.10355 4.60534C9.29882 4.80061 9.29882 5.11719 9.10355 5.31245L7.27693 7.13907C7.16786 7.24815 7.02092 7.29629 6.87842 7.28351C6.76582 7.27341 6.65598 7.22526 6.56979 7.13907L4.74019 5.30947C4.54493 5.11421 4.54493 4.79762 4.74019 4.60236C4.93545 4.4071 5.25203 4.4071 5.4473 4.60236L6.21626 5.37132C6.27585 5.43091 6.34109 5.48141 6.41025 5.52281L6.41025 2.5C6.41025 2.22386 6.63411 2 6.91025 2C7.18639 2 7.41025 2.22386 7.41025 2.5L7.41025 5.53797C7.48917 5.49394 7.5634 5.43839 7.63047 5.37132L8.39645 4.60534C8.59171 4.41008 8.90829 4.41008 9.10355 4.60534Z" fill="black"/>
<path fill-rule="evenodd" clip-rule="evenodd" d="M15.3947 15.3536C15.1994 15.5488 14.8828 15.5488 14.6875 15.3536L12.8609 13.5269C12.7519 13.4179 12.7037 13.2709 12.7165 13.1284C12.7266 13.0158 12.7747 12.906 12.8609 12.8198L14.6905 10.9902C14.8858 10.7949 15.2024 10.7949 15.3976 10.9902C15.5929 11.1855 15.5929 11.502 15.3976 11.6973L14.6287 12.4663C14.5691 12.5258 14.5186 12.5911 14.4772 12.6603L17.5 12.6603C17.7761 12.6603 18 12.8841 18 13.1603C18 13.4364 17.7761 13.6603 17.5 13.6603L14.462 13.6603C14.5061 13.7392 14.5616 13.8134 14.6287 13.8805L15.3947 14.6464C15.5899 14.8417 15.5899 15.1583 15.3947 15.3536Z" fill="black"/>
</g>
<defs>
<clipPath id="clip0_806_1033">
<rect width="20" height="20" fill="white"/>
</clipPath>
</defs>
</svg>

<svg xmlns="http://www.w3.org/2000/svg" width="20" height="20" fill="none"><g><rect width="18" height="18" x="1" y="1" stroke="#000" stroke-linejoin="round" rx="2"/><rect width="7" height="7" x="3.5" y="9.5" stroke="#000" stroke-linecap="round" stroke-linejoin="round" rx="1.5"/><path fill="#000" fill-rule="evenodd" d="M9.104 4.605a.5.5 0 0 1 0 .707L7.277 7.14a.499.499 0 0 1-.707 0L4.74 5.31a.5.5 0 0 1 .707-.707l.77.77c.059.059.124.11.193.15V2.5a.5.5 0 0 1 1 0v3.038a1 1 0 0 0 .22-.167l.766-.766a.5.5 0 0 1 .708 0ZM15.395 15.354a.5.5 0 0 1-.707 0l-1.827-1.827a.499.499 0 0 1 0-.707l1.83-1.83a.5.5 0 1 1 .707.707l-.77.77a.998.998 0 0 0-.15.193H17.5a.5.5 0 1 1 0 1h-3.038c.044.08.1.153.167.22l.766.766a.5.5 0 0 1 0 .708Z" clip-rule="evenodd"/></g></svg>
